X:95
T:Rise Me Up From Down Below
M:C|
L:1/4
Q:1/4=110
K:Bb
B,D FF/F/|BA F2|B,D FG/A/|BA F2|
BB B2|GG EB,|F>F FF|DD B,2|
C>C FA|GC F2|B>G FG|DD B,B,|
B,>C DF|DC B,2||
